icons/lines/home-wifi.svg

<svg xmlns="http://www.w3.org/2000/svg" width="24" height="24" viewBox="0 0 24 24" fill="none" stroke="currentColor" stroke-width="2" stroke-linecap="round" stroke-linejoin="round" >
  <path d="M10.0698 2.81997L3.13979 8.37002C2.35979 8.99002 1.85978 10.3 2.02978 11.28L3.35976 19.24C3.59976 20.66 4.95977 21.8101 6.39977 21.8101H17.5998C19.0298 21.8101 20.3998 20.65 20.6398 19.24L21.9698 11.28C22.1298 10.3 21.6298 8.99002 20.8598 8.37002L13.9298 2.82998C12.8598 1.96998 11.1298 1.96997 10.0698 2.81997Z"/>
  <path d="M9.87988 14.38C11.1499 13.17 12.8499 13.17 14.1199 14.38"/>
  <path d="M16.24 12.2601C15.7 11.7301 15.1 11.3201 14.48 11.0201C12.89 10.2601 11.11 10.2601 9.51001 11.0201C8.89001 11.3201 8.3 11.7301 7.75 12.2601"/>
  <path d="M11.9955 17H12.0045"/>
  </svg>

<svg xmlns="http://www.w3.org/2000/svg" width="24" height="24" viewBox="0 0 24 24" fill="none" stroke="currentColor" stroke-width="2" stroke-linecap="round" stroke-linejoin="round">
  <path d="M11.996 17h.01" />
  <path d="M16.24 12.26a6.6 6.6 0 0 0-1.76-1.24 5.7 5.7 0 0 0-4.97 0 6.8 6.8 0 0 0-1.76 1.24" />
  <path d="M3.14 8.37c-.78.62-1.28 1.93-1.11 2.91l1.33 7.96c.24 1.42 1.6 2.57 3.04 2.57h11.2c1.43 0 2.8-1.16 3.04-2.57l1.33-7.96c.16-.98-.34-2.29-1.11-2.91l-6.93-5.54c-1.07-.86-2.8-.86-3.86-.01z" />
  <path d="M9.88 14.38c1.27-1.21 2.97-1.21 4.24 0" />
</svg>
